packages/core/src/svgs/tokens/branded/PORTX.svg

<svg width="24" height="24" viewBox="0 0 24 24" fill="none" xmlns="http://www.w3.org/2000/svg">
<path fill-rule="evenodd" clip-rule="evenodd" d="M4.67332 18.5C5.55998 20.1668 6.55999 20.7668 7.33331 20.7668C8.10664 20.7668 9.1067 20.1668 9.99336 18.5C10.8466 16.9001 11.4133 14.6068 11.4133 12.0001C11.4133 9.40004 10.8466 7.1001 9.99336 5.50011C9.1067 3.83345 8.10664 3.23346 7.33331 3.23346C6.55999 3.23346 5.55998 3.83345 4.67332 5.50011C3.81999 7.1001 3.25332 9.39335 3.25332 12.0001C3.25332 14.6001 3.81999 16.9001 4.67332 18.5ZM2 12.0001C2 17.52 4.38665 22 7.33331 22C10.2799 22 12.6666 17.52 12.6666 12.0001C12.6666 6.48011 10.2799 2.00012 7.33331 2.00012C4.38665 2.00012 2 6.48011 2 12.0001Z" fill="#2FF6D3"/>
<path fill-rule="evenodd" clip-rule="evenodd" d="M9.33989 18.5C10.2266 20.1668 11.2265 20.7668 11.9999 20.7668C12.7731 20.7668 13.7732 20.1668 14.6599 18.5C15.5131 16.9001 16.0798 14.6068 16.0798 12.0001C16.0798 9.40004 15.5131 7.1001 14.6599 5.50011C13.7732 3.83345 12.7731 3.23346 11.9999 3.23346C11.2265 3.23346 10.2266 3.83345 9.33989 5.50011C8.4865 7.1001 7.91983 9.39335 7.91983 12.0001C7.91983 14.6001 8.4865 16.9001 9.33989 18.5ZM6.6665 12.0001C6.6665 17.52 9.0532 22 11.9999 22C14.9464 22 17.3331 17.52 17.3331 12.0001C17.3331 6.48011 14.9464 2.00012 11.9999 2.00012C9.0532 2.00012 6.6665 6.48011 6.6665 12.0001Z" fill="#2FF6D3"/>
<path d="M12.6668 16.6666C11.4293 16.6666 10.2422 16.1749 9.36706 15.2998C8.49191 14.4246 8.00024 13.2376 8.00024 12C8.00024 10.7622 8.49191 9.57517 9.36706 8.70008C10.2422 7.82491 11.4293 7.33325 12.6668 7.33325C13.9046 7.33325 15.0915 7.82491 15.9668 8.70008C16.8419 9.57517 17.3335 10.7622 17.3335 12C17.3335 13.2376 16.8419 14.4246 15.9668 15.2998C15.0915 16.1749 13.9046 16.6666 12.6668 16.6666Z" fill="url(#paint0_linear_364_2356)"/>
<path fill-rule="evenodd" clip-rule="evenodd" d="M14.0069 18.5C14.8935 20.1668 15.8934 20.7668 16.6669 20.7668C17.4401 20.7668 18.4402 20.1668 19.3268 18.5C20.1801 16.9001 20.7468 14.6068 20.7468 12.0001C20.7468 9.40004 20.1801 7.1001 19.3268 5.50011C18.4402 3.83345 17.4401 3.23346 16.6669 3.23346C15.8934 3.23346 14.8935 3.83345 14.0069 5.50011C13.1535 7.1001 12.5868 9.39335 12.5868 12.0001C12.5868 14.6001 13.1535 16.9001 14.0069 18.5ZM11.3335 12.0001C11.3335 17.52 13.7202 22 16.6669 22C19.6134 22 22.0001 17.52 22.0001 12.0001C22.0001 6.48011 19.6134 2.00012 16.6669 2.00012C13.7202 2.00012 11.3335 6.48011 11.3335 12.0001Z" fill="#2FF6D3"/>
<defs>
<linearGradient id="paint0_linear_364_2356" x1="12.2717" y1="12" x2="2.00027" y2="12" gradientUnits="userSpaceOnUse">
<stop stop-color="white"/>
<stop offset="1" stop-color="white" stop-opacity="0"/>
</linearGradient>
</defs>
</svg>

<svg xmlns="http://www.w3.org/2000/svg" width="24" height="24" fill="none" viewBox="0 0 24 24">
    <path fill="#2FF6D3" fill-rule="evenodd" d="M4.673 18.5c.887 1.667 1.887 2.267 2.66 2.267s1.774-.6 2.66-2.267c.854-1.6 1.42-3.893 1.42-6.5 0-2.6-.566-4.9-1.42-6.5-.886-1.667-1.886-2.267-2.66-2.267-.773 0-1.773.6-2.66 2.267-.853 1.6-1.42 3.893-1.42 6.5 0 2.6.567 4.9 1.42 6.5M2 12c0 5.52 2.387 10 5.333 10s5.334-4.48 5.334-10S10.28 2 7.333 2 2 6.48 2 12" clip-rule="evenodd"/>
    <path fill="#2FF6D3" fill-rule="evenodd" d="M9.34 18.5c.887 1.667 1.886 2.267 2.66 2.267.773 0 1.773-.6 2.66-2.267.853-1.6 1.42-3.893 1.42-6.5 0-2.6-.567-4.9-1.42-6.5-.887-1.667-1.887-2.267-2.66-2.267s-1.773.6-2.66 2.267C8.486 7.1 7.92 9.393 7.92 12c0 2.6.566 4.9 1.42 6.5M6.667 12c0 5.52 2.386 10 5.333 10s5.333-4.48 5.333-10S14.946 2 12 2 6.667 6.48 6.667 12" clip-rule="evenodd"/>
    <path fill="url(#PORTX__a)" d="M12.667 16.667a4.667 4.667 0 1 1 0-9.334 4.667 4.667 0 0 1 0 9.334"/>
    <path fill="#2FF6D3" fill-rule="evenodd" d="M14.007 18.5c.886 1.667 1.886 2.267 2.66 2.267.773 0 1.773-.6 2.66-2.267.853-1.6 1.42-3.893 1.42-6.5 0-2.6-.567-4.9-1.42-6.5-.887-1.667-1.887-2.267-2.66-2.267s-1.774.6-2.66 2.267c-.854 1.6-1.42 3.893-1.42 6.5 0 2.6.566 4.9 1.42 6.5M11.334 12c0 5.52 2.386 10 5.333 10S22 17.52 22 12 19.613 2 16.667 2s-5.334 4.48-5.334 10" clip-rule="evenodd"/>
    <defs>
        <linearGradient id="PORTX__a" x1="12.272" x2="2" y1="12" y2="12" gradientUnits="userSpaceOnUse">
            <stop stop-color="#fff"/>
            <stop offset="1" stop-color="#fff" stop-opacity="0"/>
        </linearGradient>
    </defs>
</svg>
